app/assets/img/ic-phone-blue.svg

<svg fill="none" height="23" viewBox="0 0 23 23" width="23" xmlns="http://www.w3.org/2000/svg"><path d="m19.9999 13.5001h-4.6667c-1.2565 0-2.2844.9975-2.3322 2.2423-2.9657-.4713-5.21849-2.73-5.72716-5.74465 1.23784-.05716 2.226-1.08033 2.226-2.331v-4.66667c0-1.288-1.0465-2.333332-2.33333-2.333332h-4.66667c-1.28684 0-2.333336 1.045332-2.333336 2.333332v5.83334c0 7.71988 6.280176 13.99998 13.999996 13.99998h5.8334c1.2868 0 2.3333-1.0453 2.3333-2.3333v-4.6667c0-1.288-1.0453-2.3333-2.3333-2.3333zm-5.8334 7c-6.43299 0-11.66666-5.2337-11.66666-11.66668v-5.83334h4.66667v4.66667h-1.16667c-.31267 0-.6125.12484-.83183.34884-.21934.224-.33834.52383-.33484.8365.08517 5.30951 4.09734 9.31471 9.33333 9.31471.644 0 1.1667-.5215 1.1667-1.1667v-1.1667h4.6667l.0011 4.6667z" fill="#276ce5"/></svg>

<svg width="23" height="23" viewBox="0 0 23 23" fill="none" xmlns="http://www.w3.org/2000/svg">
<path d="M19.9999 13.5001H15.3332C14.0767 13.5001 13.0488 14.4976 13.001 15.7424C10.0353 15.2711 7.78251 13.0124 7.27384 9.99775C8.51168 9.94059 9.49984 8.91742 9.49984 7.66675V3.00008C9.49984 1.71208 8.45334 0.666748 7.16651 0.666748H2.49984C1.213 0.666748 0.166504 1.71208 0.166504 3.00008V8.83342C0.166504 16.5533 6.44668 22.8334 14.1665 22.8334H19.9999C21.2867 22.8334 22.3332 21.7881 22.3332 20.5001V15.8334C22.3332 14.5454 21.2879 13.5001 19.9999 13.5001ZM14.1665 20.5001C7.73351 20.5001 2.49984 15.2664 2.49984 8.83342V3.00008H7.16651V7.66675H5.99984C5.68717 7.66675 5.38734 7.79159 5.16801 8.01559C4.94867 8.23959 4.82967 8.53942 4.83317 8.85209C4.91834 14.1616 8.93051 18.1668 14.1665 18.1668C14.8105 18.1668 15.3332 17.6453 15.3332 17.0001V15.8334H19.9999L20.001 20.5001H14.1665Z" fill="#276CE5"/>
</svg>
